X: 15
T:Contradiction (#215), The
M:4/4
L:1/8
C:Miss Gunning's Delight Variant
S:Sergt. James O'Neill manuscripts
R:Reel
K:A
e|c2 {d}(3cBA BEED|CEAc dfed|c2 {d}(3cBA GABc|defg afed|
c2 {d}(3cBA BEED|CEAc dfed|c2 {d}(3cBA GABg|afec A/2A/2A A||
g|aA A/2A/2A aAcA|GBEB GBEg|aA A/2A/2A aAcA|GBEB cAAg|
aA A/2A/2A aAcA|GBEB EBEg|agfe fedc|dEFG A2||
e2|aec'e aec'e|bed'e bed'e|c'ee'e c'ee'e|dcBA EA A2|
aec'e aec'e|bed'e bed'e|c'ee'e c'ee'e|dcBA EA A2||
cefe cefe|dcBA BE E2|cefe cefe|fagb afed|
cefe cefe|(3fga ec BE E2|ecea fdfa|gbeg aefd||
%
% SEE NOTES TO MISS GUNNING'S DELIGHT #214

